svg/u1f3ed.svg

<svg viewBox="0 0 128 128" xmlns="http://www.w3.org/2000/svg">
  <linearGradient id="SVGID_1_" gradientUnits="userSpaceOnUse" x1="31.5145" x2="37.4519" y1="7.8208" y2="35.5747">
    <stop offset="0.368" stop-color="#E0E0E0"/>
    <stop offset="0.616" stop-color="#C8C8C8"/>
    <stop offset="0.7769" stop-color="#B6B6B6"/>
  </linearGradient>
  <path d="M31.28,36.83c0,0-1.18-6.21,3-10.16s7.6-3.1,12.88-5.97 c5.07-2.75,8.06-7.84,7.25-8.42c-0.81-0.59-1.8,0.98-5.86,1.54c-4.76,0.66-11.49,0.12-18.68,0.73C22,15.21,16.95,17.41,14.6,23.68 c-2.01,5.37,1.51,11.59,1.51,11.59L31.28,36.83z" opacity="0.7" fill="url(#SVGID_1_)"/>
  <linearGradient id="SVGID_2_" gradientUnits="userSpaceOnUse" x1="67.6666" x2="73.0918" y1="9.75" y2="35.1095">
    <stop offset="0.4152" stop-color="#E0E0E0"/>
    <stop offset="0.6346" stop-color="#C8C8C8"/>
    <stop offset="0.7769" stop-color="#B6B6B6"/>
  </linearGradient>
  <path d="M52.36,35.16c0,0-2.46-7.81,1.71-13.05c3.98-5.01,8.15-6.09,15.73-6.95 c8.57-0.97,11.66-0.43,14.6-1.36c1.36-0.43,4-2.02,4.64-1.16c0.64,0.86-2.63,6.79-9.91,10.22c-6.23,2.93-8.76,4.46-9.62,8.1 c-0.74,3.16-1.28,5.13-1.28,5.13L52.36,35.16z" opacity="0.7" fill="url(#SVGID_2_)"/>
  <path d="M32.83,39.43c0,0,1.17-0.62,1.09-2.93c-0.08-1.99-1.57-2.61-2.63-2.68 c-1.06-0.07-15.26-0.14-15.97-0.14s-2.2,0.78-2.27,3.12c-0.06,1.99,1.28,2.63,1.28,2.63l-3.34,28.53L22.2,79.8l14.55,0.35 L32.83,39.43z" fill="#CC1935"/>
  <path d="M51.18,39.46c0,0-1.4-0.8-1.29-2.99c0.1-2.11,1.61-2.75,2.18-2.75s16.71,0.07,17.28,0.12 c0.64,0.05,1.61,0.98,1.57,2.94c-0.04,2-1.45,2.84-1.45,2.84l4.69,41.83L48.67,69.72L51.18,39.46z" fill="#CC1935"/>
  <path d="M13.67,44.94l19.69,0.01l0.77,8.02l-21.4-0.01C12.74,52.97,13.67,44.86,13.67,44.94z" fill="#F1EDEC"/>
  <polygon points="11.54,63.24 35.13,63.29 35.92,71.54 10.39,71.58 " fill="#F1EDEC"/>
  <polygon points="50.71,45 70.07,45.03 70.95,52.81 50.06,52.82 " fill="#F1EDEC"/>
  <polygon points="49.22,63 72.1,63.04 73.06,71.58 48.43,71.66 " fill="#F1EDEC"/>
  <path d="M4.19,85.46c0,0,0.02-19.16,0.02-20.16c0-1,0.82-1.1,1.57-0.85c0.75,0.25,2.06,1.04,2.06,1.04 l10.82,17.13l21.01-1.06c0,0,0.16-16.08,0.16-17.14c0-1.06,1.13-0.8,1.82-0.49c0.69,0.31,1.85,0.95,1.85,0.95l5.23,25.75L6.5,89.37 L4.19,85.46z" fill="#848486"/>
  <polygon points="7.77,85.49 7.84,65.48 39.67,81.55 39.73,87.08 7.94,87.1 " fill="#B2B2B2"/>
  <polygon points="42.93,86.86 43.53,85.46 43.41,64.82 81.06,83.64 81.06,25.09 123.83,25.09 123.83,119.4 102.1,121.02 73.57,121.17 " fill="#B2B2B2"/>
  <path d="M80.23,119.58l9.3,0.03c0,0,0-30.29,0-31.59c0-1.3,0.48-2.09,2.09-2.09c1.61,0,21.3,0,22.46,0 s2.05,0.65,2.05,2.91s0,30.57,0,30.57l7.69-0.01c0,0-0.04,2.3-0.11,3.05c-0.07,0.82-0.21,1.37-1.85,1.37s-43.05-0.02-43.05-0.02 L80.23,119.58z" fill="#848486"/>
  <path d="M90.17,81.11V26.55l11.5-2.85l13.09,3.17v54.14C114.76,81.01,90.02,80.96,90.17,81.11z" fill="#F2EEED"/>
  <rect height="13.77" fill="#A7D0D6" width="18.08" x="93.45" y="30.04"/>
  <rect height="14.46" fill="#A7D0D6" width="17.94" x="93.55" y="47.24"/>
  <rect height="12.77" fill="#A7D0D6" width="18.05" x="93.45" y="65.07"/>
  <path d="M78.86,21.55c-0.3,0.25-0.23,5.55,0.15,5.55c0.39,0,46.01,0.35,46.36,0 c0.35-0.35,0.23-5.25-0.08-5.63c-0.15-0.19-10.9-0.23-21.98-0.15C91.31,21.4,79.11,21.35,78.86,21.55z" fill="#848486"/>
  <rect height="34.79" fill="#F6B99D" width="9.06" x="71.92" y="85.47"/>
  <rect height="35.1" fill="#E14536" width="73.81" x="4.18" y="85.46"/>
  <rect height="36.41" fill="#F6B99D" width="3.8" x="39.72" y="85.45"/>
  <path d="M80.98,119.57l-76.84,0.27c0,0,0,1.45,0,2.14c0,0.69,0.14,1.72,1.65,1.83s75.15,0,75.15,0 S81.01,119.65,80.98,119.57z" fill="#A41916"/>
  <path d="M16.52,97.03c0.04,0.85,0.05,8.28,0.05,8.98c0,1.15,0.65,1.66,1.86,1.71 c1.25,0.05,8.53,0.02,9.28-0.05c1.15-0.1,1.15-1.35,1.1-2.31c-0.05-0.95-0.05-7.58-0.05-8.33s-0.38-1.58-1.69-1.58 c-1.3,0-8.59-0.06-9.25-0.03C17.27,95.45,16.47,95.82,16.52,97.03z" fill="#F1EBEE"/>
  <path d="M56.65,95.57c-1.2,0.05-1.42,0.89-1.42,1.84c0,0.95-0.1,7.43-0.05,8.19 c0.05,0.71,0.26,1.96,1.57,1.91s8.13,0.23,9.28,0.1c1.48-0.16,1.25-1.46,1.29-2.36c0.05-1.1,0.06-6.93,0.09-7.88 c0.03-1.16-0.48-1.79-1.73-1.79S57.75,95.52,56.65,95.57z" fill="#F1EBEE"/>
  <rect height="8.08" fill="#A7D0D6" width="8" x="57.28" y="97.46"/>
  <rect height="8.08" fill="#A7D0D6" width="8.36" x="18.44" y="97.53"/>
</svg>

<svg viewBox="0 0 128 128" xmlns="http://www.w3.org/2000/svg">
  <defs>
    <linearGradient id="SVGID_1_" gradientUnits="userSpaceOnUse" x1="31.5145" x2="37.4519" y1="7.8208" y2="35.5747">
      <stop offset="0.368" stop-color="#E0E0E0"/>
      <stop offset="0.616" stop-color="#C8C8C8"/>
      <stop offset="0.7769" stop-color="#B6B6B6"/>
    </linearGradient>
    <linearGradient id="SVGID_2_" gradientUnits="userSpaceOnUse" x1="67.6666" x2="73.0918" y1="9.75" y2="35.1095">
      <stop offset="0.4152" stop-color="#E0E0E0"/>
      <stop offset="0.6346" stop-color="#C8C8C8"/>
      <stop offset="0.7769" stop-color="#B6B6B6"/>
    </linearGradient>
  </defs>
  <path d="M31.28,36.83 C31.28,36.83 30.1,30.62 34.28,26.67 C38.46,22.72 41.88,23.57 47.16,20.7 C52.23,17.95 55.22,12.86 54.41,12.28 C53.6,11.69 52.61,13.26 48.55,13.82 C43.79,14.48 37.06,13.94 29.87,14.55 C22,15.21 16.95,17.41 14.6,23.68 C12.59,29.05 16.11,35.27 16.11,35.27 L31.28,36.83 Z" fill="url(#SVGID_1_)" opacity="0.7"/>
  <path d="M52.36,35.16 C52.36,35.16 49.9,27.35 54.07,22.11 C58.05,17.1 62.22,16.02 69.8,15.16 C78.37,14.19 81.46,14.73 84.4,13.8 C85.76,13.37 88.4,11.78 89.04,12.64 C89.68,13.5 86.41,19.43 79.13,22.86 C72.9,25.79 70.37,27.32 69.51,30.96 C68.77,34.12 68.23,36.09 68.23,36.09 L52.36,35.16 Z" fill="url(#SVGID_2_)" opacity="0.7"/>
  <path d="M32.83,39.43 C32.83,39.43 34,38.81 33.92,36.5 C33.84,34.51 32.35,33.89 31.29,33.82 C30.23,33.75 16.03,33.68 15.32,33.68 C14.61,33.68 13.12,34.46 13.05,36.8 C12.99,38.79 14.33,39.43 14.33,39.43 L10.99,67.96 L22.2,79.8 L36.75,80.15 L32.83,39.43 Z" fill="#CC1935"/>
  <path d="M51.18,39.46 C51.18,39.46 49.78,38.66 49.89,36.47 C49.99,34.36 51.5,33.72 52.07,33.72 C52.64,33.72 68.78,33.79 69.35,33.84 C69.99,33.89 70.96,34.82 70.92,36.78 C70.88,38.78 69.47,39.62 69.47,39.62 L74.16,81.45 L48.67,69.72 L51.18,39.46 Z" fill="#CC1935"/>
  <path d="M13.67,44.94 L33.36,44.95 L34.13,52.97 L12.73,52.96 C12.74,52.97 13.67,44.86 13.67,44.94 Z" fill="#F1EDEC"/>
  <path d="M11.54,63.24 L35.13,63.29 L35.92,71.54 L10.39,71.58 Z" fill="#F1EDEC"/>
  <path d="M50.71,45 L70.07,45.03 L70.95,52.81 L50.06,52.82 Z" fill="#F1EDEC"/>
  <path d="M49.22,63 L72.1,63.04 L73.06,71.58 L48.43,71.66 Z" fill="#F1EDEC"/>
  <path d="M4.19,85.46 C4.19,85.46 4.21,66.3 4.21,65.3 C4.21,64.3 5.03,64.2 5.78,64.45 C6.53,64.7 7.84,65.49 7.84,65.49 L18.66,82.62 L39.67,81.56 C39.67,81.56 39.83,65.48 39.83,64.42 C39.83,63.36 40.96,63.62 41.65,63.93 C42.34,64.24 43.5,64.88 43.5,64.88 L48.73,90.63 L6.5,89.37 L4.19,85.46 Z" fill="#848486"/>
  <path d="M7.77,85.49 L7.84,65.48 L39.67,81.55 L39.73,87.08 L7.94,87.1 Z" fill="#B2B2B2"/>
  <path d="M42.93,86.86 L43.53,85.46 L43.41,64.82 L81.06,83.64 L81.06,25.09 L123.83,25.09 L123.83,119.4 L102.1,121.02 L73.57,121.17 Z" fill="#B2B2B2"/>
  <path d="M80.23,119.58 L89.53,119.61 C89.53,119.61 89.53,89.32 89.53,88.02 C89.53,86.72 90.01,85.93 91.62,85.93 C93.23,85.93 112.92,85.93 114.08,85.93 C115.24,85.93 116.13,86.58 116.13,88.84 C116.13,91.1 116.13,119.41 116.13,119.41 L123.82,119.4 C123.82,119.4 123.78,121.7 123.71,122.45 C123.64,123.27 123.5,123.82 121.86,123.82 C120.22,123.82 78.81,123.8 78.81,123.8 L80.23,119.58 Z" fill="#848486"/>
  <path d="M90.17,81.11 L90.17,26.55 L101.67,23.7 L114.76,26.87 L114.76,81.01 C114.76,81.01 90.02,80.96 90.17,81.11 Z" fill="#F2EEED"/>
  <path d="M93.45,30.04 L111.53,30.04 L111.53,43.81 L93.45,43.81 L93.45,30.04 Z" fill="#A7D0D6"/>
  <path d="M93.55,47.24 L111.49,47.24 L111.49,61.7 L93.55,61.7 L93.55,47.24 Z" fill="#A7D0D6"/>
  <path d="M93.45,65.07 L111.5,65.07 L111.5,77.84 L93.45,77.84 L93.45,65.07 Z" fill="#A7D0D6"/>
  <path d="M78.86,21.55 C78.56,21.8 78.63,27.1 79.01,27.1 C79.4,27.1 125.02,27.45 125.37,27.1 C125.72,26.75 125.6,21.85 125.29,21.47 C125.14,21.28 114.39,21.24 103.31,21.32 C91.31,21.4 79.11,21.35 78.86,21.55 Z" fill="#848486"/>
  <path d="M71.92,85.47 L80.98,85.47 L80.98,120.26 L71.92,120.26 L71.92,85.47 Z" fill="#F6B99D"/>
  <path d="M4.18,85.46 L77.99,85.46 L77.99,120.56 L4.18,120.56 L4.18,85.46 Z" fill="#E14536"/>
  <path d="M39.72,85.45 L43.52,85.45 L43.52,121.86 L39.72,121.86 L39.72,85.45 Z" fill="#F6B99D"/>
  <path d="M80.98,119.57 L4.14,119.84 C4.14,119.84 4.14,121.29 4.14,121.98 C4.14,122.67 4.28,123.7 5.79,123.81 C7.3,123.92 80.94,123.81 80.94,123.81 C80.94,123.81 81.01,119.65 80.98,119.57 Z" fill="#A41916"/>
  <path d="M16.52,97.03 C16.56,97.88 16.57,105.31 16.57,106.01 C16.57,107.16 17.22,107.67 18.43,107.72 C19.68,107.77 26.96,107.74 27.71,107.67 C28.86,107.57 28.86,106.32 28.81,105.36 C28.76,104.41 28.76,97.78 28.76,97.03 C28.76,96.28 28.38,95.45 27.07,95.45 C25.77,95.45 18.48,95.39 17.82,95.42 C17.27,95.45 16.47,95.82 16.52,97.03 Z" fill="#F1EBEE"/>
  <path d="M56.65,95.57 C55.45,95.62 55.23,96.46 55.23,97.41 C55.23,98.36 55.13,104.84 55.18,105.6 C55.23,106.31 55.44,107.56 56.75,107.51 C58.06,107.46 64.88,107.74 66.03,107.61 C67.51,107.45 67.28,106.15 67.32,105.25 C67.37,104.15 67.38,98.32 67.41,97.37 C67.44,96.21 66.93,95.58 65.68,95.58 C64.43,95.58 57.75,95.52 56.65,95.57 Z" fill="#F1EBEE"/>
  <path d="M57.28,97.46 L65.28,97.46 L65.28,105.54 L57.28,105.54 L57.28,97.46 Z" fill="#A7D0D6"/>
  <path d="M18.44,97.53 L26.8,97.53 L26.8,105.61 L18.44,105.61 L18.44,97.53 Z" fill="#A7D0D6"/>
</svg>
